!!!COM: Palestrina, Giovanni Perluigi da
!!!OPR: Missa Brevis
!!!OTL: Sanctus
**kern	**kern	**kern	**kern
*Ibass	*Itenor	*Icalto	*Icant
!Bassus	!Tenor	!Altus	!Cantus
*clefF4	*clefGv2	*clefG2	*clefG2
*k[b-]	*k[b-]	*k[b-]	*k[b-]
*F:ion	*F:ion	*F:ion	*F:ion
*M4/2	*M4/2	*M4/2	*M4/2
=1	=1	=1	=1
0r	0r	1r	0cc
.	.	[1f	.
=2	=2	=2	=2
0r	0r	1f]	1a
.	.	1d	1b-
=3	=3	=3	=3
0c	0r	1e	2g
.	.	.	2.gg
.	.	2c	.
.	.	.	4ff
.	.	[2cc	4ee
.	.	.	4dd
=4	=4	=4	=4
1A	0r	4cc]	2cc
.	.	4b-	.
.	.	4a	2.ff
.	.	4g	.
1B-	.	2f	.
.	.	.	4ee
.	.	[2b-	4dd
.	.	.	4cc
=5	=5	=5	=5
2G	0r	4b-]	2dd
.	.	4a	.
2.c	.	4g	2.ee
.	.	4f	.
.	.	2e	.
4B-	.	.	4dd
4A	.	2f	[2cc
4G	.	.	.
=6	=6	=6	=6
2F	0r	1d	2cc]
2G	.	.	2b-
2A	.	2c	1a
2F	.	[2f	.
=7	=7	=7	=7
1C	0c	2f]	1g
.	.	2e	.
[1F	.	1f	2.a
.	.	.	4b-
=8	=8	=8	=8
1F]	1A	1a	1cc
1D	1B-	1f	1r
=9	=9	=9	=9
1E	2G	1g	1r
.	2.g	.	.
2C	.	1e	[1cc
.	4f	.	.
[2c	4e	.	.
.	4d	.	.
=10	=10	=10	=10
4c]	2c	0r	1cc]
4B-	.	.	.
4A	2.f	.	.
4G	.	.	.
2F	.	.	1a
.	4e	.	.
2A	4d	.	.
.	4c	.	.
=11	=11	=11	=11
1G	1d	0g	1b-
[1c	2.e	.	2g
.	.	.	[2gg
.	4f	.	.
=12	=12	=12	=12
1c]	1g	1e	4gg]
.	.	.	4ff
.	.	.	4ee
.	.	.	4dd
1A	1a	1f	2cc
.	.	.	[2ff
=13	=13	=13	=13
1B-	1r	2d	4ff]
.	.	.	4ee
.	.	2.g	4dd
.	.	.	4cc
2G	1g	.	4b-
.	.	4f	4a
[2c	.	4e	2g
.	.	4d	.
=14	=14	=14	=14
4c]	1e	2c	2.cc
4B-	.	.	.
4A	.	2.cc	.
4G	.	.	4b-
[1F	1f	.	4a
.	.	4b-	4g
.	.	4a	2f
.	.	4g	.
=15	=15	=15	=15
0F]	2c	2.f	2.a
.	1f	.	.
.	.	4g	4b-
.	.	1a	[1cc
.	4e	.	.
.	4d	.	.
=16	=16	=16	=16
1C	2.e	1g	1cc]
.	4d	.	.
2r	2e	1c	2r
[2F	2f	.	[2a
=17	=17	=17	=17
2F]	1d	1r	2a]
2G	.	.	2b
1A	1c	2r	1cc
.	.	[2f	.
=18	=18	=18	=18
1B-	0r	2f]	1dd
.	.	2g	.
2A	.	1a	2cc
[2d	.	.	[2ff
=19	=19	=19	=19
2d]	0r	1b-	2ff]
4c	.	.	4ee
4B-	.	.	4dd
1c	.	2a	1ee
.	.	[2g	.
=20	=20	=20	=20
2B-	1r	4g]	2dd
.	.	4f	.
2A	.	1f	2cc
2B-	2r	.	2dd
2c	[2c	2e	4cc
.	.	.	4b-
=21	=21	=21	=21
1F	2c]	1f	1a
.	2d	.	.
1c	1e	2r	1g
.	.	2g	.
=22	=22	=22	=22
2.F	1f	1.a	2r
.	.	.	1cc
4G	.	.	.
2A	2e	.	.
2B-	[2d	4g	2dd
.	.	4f	.
=23	=23	=23	=23
2c	4d]	2e	1ee
.	4c	.	.
2C	1c	2g	.
1D	.	1f	[1ff
.	2B	.	.
=24	=24	=24	=24
1C	1c	2r	2ff]
.	.	1c	4ee
.	.	.	4dd
1r	2A	.	2ee
.	2B-	2d	[2dd
=25	=25	=25	=25
2r	1c	2e	2dd]
1F	.	2.f	1cc
.	2.d	.	.
.	.	4e	.
2G	.	[2d	[2b-
.	4e	.	.
=26	=26	=26	=26
1A	2f	2d]	4b-]
.	.	.	4a
.	2e	2c	1a
1B-	1r	2.d	.
.	.	.	2g
.	.	4e	.
=27	=27	=27	=27
1A	2r	2f	1a
.	1c	2e	.
1F	.	2.a	1r
.	2d	.	.
.	.	8g	.
.	.	8f	.
=28	=28	=28	=28
1c	1e	1g	2r
.	.	.	1cc
1F	1f	1a	.
.	.	.	2dd
=29	=29	=29	=29
1C	2e	2r	1ee
.	2c	2cc	.
1r	1d	2a	[1ff
.	.	2b-	.
=30	=30	=30	=30
2r	1c	1.cc	2ff]
2c	.	.	2ee
2A	2r	.	2cc
2B-	2g	4b-	[2dd
.	.	4a	.
=31	=31	=31	=31
2c	2e	2g	4dd]
.	.	.	4cc
2A	2f	2c	1cc
1G	2.g	2d	.
.	.	[2g	2b
.	4f	.	.
=32	=32	=32	=32
1c	4e	2g]	1cc
.	4d	.	.
.	1c	2e	.
2A	.	2f	1r
2B-	2d	[2g	.
=33	=33	=33	=33
2.c	2e	4g]	1r
.	.	4f	.
.	2.A	4e	.
4B-	.	4d	.
4A	.	4c	2r
4G	4B-	4B-	.
[2F	2c	4A	2ff
.	.	4G	.
=34	=34	=34	=34
2F]	2d	2A	2dd
2E	1c	2G	2ee
1D	.	1r	[1ff
.	2B	.	.
=35	=35	=35	=35
0C	0c	2r	2ff]
.	.	1g	4ee
.	.	.	4dd
.	.	.	4ee
.	.	.	4dd
.	.	2e	4cc
.	.	.	4b-
=36	=36	=36	=36
2r	0r	2f	4a
.	.	.	4b-
2c	.	2g	1cc
2A	.	2c	.
2B-	.	[2f	4b-
.	.	.	4a
=37	=37	=37	=37
2.c	2r	2f]	1g
.	1c	2e	.
4B-	.	.	.
4A	.	2r	1a
4G	.	.	.
2F	2A	2f	.
=38	=38	=38	=38
2G	2B	2d	1r
2C	2.c	2e	.
2E	.	2g	2r
.	4B-	.	.
[2F	4A	[2a	2cc
.	4G	.	.
=39	=39	=39	=39
4F]	1F	4a]	2a
4E	.	4g	.
2D	.	1f	2b
1C	1G	.	1cc
.	.	2e	.
=40	=40	=40	=40
1F	2F	1.f	1a
.	2f	.	.
1r	2d	.	2r
.	2e	2c	2cc
=41	=41	=41	=41
0r	1.f	1d	2a
.	.	.	2b-
.	.	1A	2.cc
.	2e	.	.
.	.	.	4b-
=42	=42	=42	=42
1F	2c	0r	4a
.	.	.	4g
.	1d	.	1f
2D	.	.	.
2E	4c	.	2g
.	4B-	.	.
=43	=43	=43	=43
4F	2A	2r	1a
4E	.	.	.
4D	2F	2f	.
4C	.	.	.
2BB-	2r	2d	2b-
2C	2c	2e	[2a
=44	=44	=44	=44
1D	2A	1.f	2a]
.	2B	.	4g
.	.	.	4f
2C	2.c	.	2a
[2c	.	4e	2g
.	4B-	4d	.
=45	=45	=45	=45
4c]	4A	2e	2.cc
4B-	4G	.	.
4A	1F	2.f	.
4G	.	.	4b-
2F	.	.	2a
.	.	4e	.
2E	2G	2c	[2g
=46	=46	=46	=46
2D	2A	1d	4g]
.	.	.	4f
2BB-	2B-	.	1f
1C	1G	1c	.
.	.	.	2e
=47	=47	=47	=47
[0F	[0F	[0c	[0f
=48	=48	=48	=48
0F]	0F]	0c]	0f]
==	==	==	==
*-	*-	*-	*-
!!!CDT: 1525/^1526/-1594/2/2
!!!OCY: Italia
!!!AGN: Mass (Free)
!!!AST: renaissance, vocal
!!!ASW: Motet 1532 (Penet)
!!!PWK: Masses, Book 3
!!!RNB: Cadence finals: C
!!!YOR: Le Opere Complete, v. 6, p. 62
!!!YOO: Rome, Italy: Fratelli Scalera
!!!END: 1992//
!!!EED: John Miller
!!!YEC: Copyright 2000, John Miller
!!!YEN: United States of America
!!!YEM: Rights to all derivative electronic formats reserved.
!!!YEM: Refer to licensing agreement for further details.
!!!YEM: This file must be accompanied by the licensing agreement.
!!!YEM: A copy of the licensing agreement may be found at http://www.music-cog.ohio-state.edu/HumdrumDatabases/Palestrina/license.txt
!!!EMD: converted to Humdrum by Bret Aarden
